X: 44
T: A Buffalo Said to Me
C: Teton Sioux band 1911-1914
N: Derived from sioux044.krn
O: South Dakota, U.S.A.
N: Teton Sioux Music by Frances Densmore, 1918
Z: transcribed to **kern format by Craig Sapp
L: 1/16
M: 3/4
Q: 1/4=58
K: Db clef=bass
%%linebreak <none>
F [I:setbarnb 1]| 
F2> F2 F2> E2 E3 F ||  
[M:2/4]E2> E2 D D3 ||  
[M:3/4]D8B,3 D | 
D2> E2 E2> D2 D3 __B, ||  
[M:2/4]__B,2> A,2 A, A,3 ||  
[M:3/4]A,8F,3 A, | 
A,2> __B,2 B,2> A,2 A,3 B, ||  
[M:2/4]A,2> F,2 F, F,3 | 
F,8 | 
F,8 | 
D2< D2 D D3 | 
F D2 B,A,4 ||  
[M:3/4]A,8F,3 A, | 
A,2> __B,2 B,2> A,2 A,3 B, ||  
[M:2/4]A,2> F,2 F, F,3 | 
F,8 | 
F,4z4 |]  



